X:1
T:6 Lieder, Op.19
T:Beduinen-Romanze
T:4. Beduinen-Romanze
T:Johanna Kinkel
T:Gottfried Kinkel
T:6 Lieder, Op.19 (für Alt oder Bariton) 
T:Creative Commons copyright waiver (CC0 1.0 Universal)
T:Creative Commons copyright waiver (CC0 1.0 Universal)
C:Johanna Kinkel
Z:Gottfried Kinkel
Z:Creative Commons copyright waiver (CC0 1.0 Universal)
%%score ( 1 2 ) 3
L:1/8
Q:1/4=144
M:6/8
K:C
V:1 treble nm="Singstimme\nVoice"
V:2 treble 
V:3 bass nm="Pianoforte"
V:1
"^Molto allegro" z z | z6 |!f! A3 E3 | (A2 B) c2 d | e3 B2 z | B2 z"^(*)" z2 z | B2 z z2 B | %7
w: ||1. Vor- wärts|mit des Vo- gels|Flu- ge,|fort!|fort mein|
w: ||2. Mond- licht|zit- * tert! *|||* ein|
w: ||3. Jus- suf|senkt die Lan- zen-|spit- ze||spornt das|
w: ||4. Rück- wärts|wen- det sich die|Stu- te||braust da-|
 e2 d B2 c | A2 z z!ff! c d | _e2 e e2 e | _e6 | z6 | c3 A3 | z6 | z6 | z6 | z6 | z6 | z6 | z6 | %20
w: Ross in Stur- mes-|flucht! Denn ge-|mor- det liegt der|Feind||||||||||
w: Schat- ten sich em-|por. Und die|Stu- te beisst den|Zaum||||||||||
w: Tier mit al- ler|Macht. Doch der|Schat- ten un- be-|wegt||||||||||
w: hin in Stur- mes-|flucht, und der|Mör- der liegt zer-|schellt||||||||||
 z6 | z6 | z6 | z6 | z6 | z6 | z6 | z6 | z6 :| %29
w: |||||||||
w: |||||||||
w: |||||||||
w: |||||||||
V:2
 x2 | x6 | x6 | x3 c z x | z6 | z2 z B2 B | B2 B B2 x | x6 | x6 | x6 | x6 | x6 | x6 | x6 | x6 | %15
w: |||||||||||||||
w: |||||In der|Wüs- te bäumt|||||||||
 x6 | x6 | x6 | x6 | x6 | x6 | x6 | x6 | x6 | x6 | x6 | x6 | x6 | x6 :| %29
w: ||||||||||||||
w: ||||||||||||||
V:3
 z2 | z6 | z6 | z6 | z6 | z6 | z6 | z6 | z6 |"_(*) The small notes refer only to Verse 2" z6 | z6 | %11
 z6 | z6 | z6 | z6 | z6 | z6 | z6 | z6 | z6 | z6 | z6 | z6 | z6 | z6 | z6 | z6 | z6 | z6 :| %29

